dist/svg/guitar-fill.svg

<svg xmlns="http://www.w3.org/2000/svg" viewBox="0 0 24 24"><path d="M17.156 3.253a.79.79 0 0 0-.428.663c-.026.363.038.493.457.925l.373.384-.198.195-.199.196-.35-.343c-.43-.418-.555-.489-.871-.491a.846.846 0 0 0-.86.834c.001.289.079.427.471.832l.385.396-1.044 1.044-1.044 1.043-.123-.088a4 4 0 0 0-.466-.248 4.25 4.25 0 0 0-4.108.311c-.555.369-.996.849-1.391 1.514-.413.695-.891 1.051-1.72 1.28a4.6 4.6 0 0 0-2.319 1.492c-.67.809-1.011 1.774-1.015 2.868-.004.976.222 1.729.768 2.56.244.371 1.535 1.662 1.906 1.906.98.644 2.14.911 3.198.737 1.517-.25 2.741-1.132 3.394-2.445.145-.291.23-.522.411-1.112.129-.418.394-.849.678-1.099.108-.094.349-.264.537-.376a4.7 4.7 0 0 0 1.069-.844c1.182-1.263 1.462-3.117.71-4.704a3 3 0 0 0-.246-.453c-.064-.07-.016-.125.979-1.12l1.046-1.046.397.385c.31.302.435.395.571.432.68.183 1.298-.468 1.055-1.111-.05-.134-.178-.3-.433-.561l-.362-.37.195-.198.196-.199.384.373c.432.419.562.483.925.457.446-.032.769-.39.765-.847-.003-.297-.1-.463-.505-.863l-.342-.339.358-.366c.198-.201.389-.435.424-.521a.836.836 0 0 0-.7-1.168c-.363-.026-.493.038-.924.456l-.385.373-.337-.343c-.186-.188-.41-.376-.498-.417a.95.95 0 0 0-.784.016m-5.221 8.548c.424.287.518.9.197 1.282-.315.374-.952.389-1.277.031-.333-.366-.297-.966.076-1.25.201-.153.306-.184.593-.173.204.009.298.034.411.11m-4.981 3.186c.204.094 1.945 1.824 2.047 2.034.08.166.1.386.054.614-.032.16-.312.479-.482.55-.185.078-.523.067-.713-.022-.219-.102-1.955-1.85-2.039-2.052-.071-.172-.08-.495-.019-.658.061-.161.271-.37.458-.457a.92.92 0 0 1 .694-.009"/></svg>

<svg fill="none" xmlns="http://www.w3.org/2000/svg" viewBox="0 0 24 24"><path d="M17.156 3.253 C 16.901 3.388,16.749 3.622,16.728 3.916 C 16.702 4.279,16.766 4.409,17.185 4.841 L 17.558 5.225 17.360 5.420 L 17.161 5.616 16.811 5.273 C 16.381 4.855,16.256 4.784,15.940 4.782 C 15.467 4.779,15.079 5.155,15.080 5.616 C 15.081 5.905,15.159 6.043,15.551 6.448 L 15.936 6.844 14.892 7.888 L 13.848 8.931 13.725 8.843 C 13.657 8.795,13.447 8.683,13.259 8.595 C 11.952 7.983,10.358 8.103,9.151 8.906 C 8.596 9.275,8.155 9.755,7.760 10.420 C 7.347 11.115,6.869 11.471,6.040 11.700 C 5.122 11.955,4.316 12.473,3.721 13.192 C 3.051 14.001,2.710 14.966,2.706 16.060 C 2.702 17.036,2.928 17.789,3.474 18.620 C 3.718 18.991,5.009 20.282,5.380 20.526 C 6.360 21.170,7.520 21.437,8.578 21.263 C 10.095 21.013,11.319 20.131,11.972 18.818 C 12.117 18.527,12.202 18.296,12.383 17.706 C 12.512 17.288,12.777 16.857,13.061 16.607 C 13.169 16.513,13.410 16.343,13.598 16.231 C 14.036 15.969,14.369 15.707,14.667 15.387 C 15.849 14.124,16.129 12.270,15.377 10.683 C 15.278 10.474,15.167 10.270,15.131 10.230 C 15.067 10.160,15.115 10.105,16.110 9.110 L 17.156 8.064 17.553 8.449 C 17.863 8.751,17.988 8.844,18.124 8.881 C 18.804 9.064,19.422 8.413,19.179 7.770 C 19.129 7.636,19.001 7.470,18.746 7.209 L 18.384 6.839 18.579 6.641 L 18.775 6.442 19.159 6.815 C 19.591 7.234,19.721 7.298,20.084 7.272 C 20.530 7.240,20.853 6.882,20.849 6.425 C 20.846 6.128,20.749 5.962,20.344 5.562 L 20.002 5.223 20.360 4.857 C 20.558 4.656,20.749 4.422,20.784 4.336 C 21.008 3.800,20.654 3.209,20.084 3.168 C 19.721 3.142,19.591 3.206,19.160 3.624 L 18.775 3.997 18.438 3.654 C 18.252 3.466,18.028 3.278,17.940 3.237 C 17.710 3.129,17.378 3.136,17.156 3.253 M11.935 11.801 C 12.359 12.088,12.453 12.701,12.132 13.083 C 11.817 13.457,11.180 13.472,10.855 13.114 C 10.522 12.748,10.558 12.148,10.931 11.864 C 11.132 11.711,11.237 11.680,11.524 11.691 C 11.728 11.700,11.822 11.725,11.935 11.801 M6.954 14.987 C 7.158 15.081,8.899 16.811,9.001 17.021 C 9.081 17.187,9.101 17.407,9.055 17.635 C 9.023 17.795,8.743 18.114,8.573 18.185 C 8.388 18.263,8.050 18.252,7.860 18.163 C 7.641 18.061,5.905 16.313,5.821 16.111 C 5.750 15.939,5.741 15.616,5.802 15.453 C 5.863 15.292,6.073 15.083,6.260 14.996 C 6.460 14.903,6.763 14.899,6.954 14.987 " stroke="none" fill-rule="evenodd"/></svg>
